storage/app/icons/phosphoricons/light/gps-fix-light.svg

<svg xmlns="http://www.w3.org/2000/svg" fill="currentColor" viewBox="0 0 256 256"><path d="M240 122h-26.23A86.12 86.12 0 0 0 134 42.23V16a6 6 0 0 0-12 0v26.23A86.12 86.12 0 0 0 42.23 122H16a6 6 0 0 0 0 12h26.23A86.12 86.12 0 0 0 122 213.77V240a6 6 0 0 0 12 0v-26.23A86.12 86.12 0 0 0 213.77 134H240a6 6 0 0 0 0-12m-112 80a74 74 0 1 1 74-74 74.09 74.09 0 0 1-74 74m0-112a38 38 0 1 0 38 38 38 38 0 0 0-38-38m0 64a26 26 0 1 1 26-26 26 26 0 0 1-26 26"/></svg>

<svg xmlns="http://www.w3.org/2000/svg" viewBox="0 0 256 256" fill="currentColor"><path d="M240,122H213.77A86.12,86.12,0,0,0,134,42.23V16a6,6,0,0,0-12,0V42.23A86.12,86.12,0,0,0,42.23,122H16a6,6,0,0,0,0,12H42.23A86.12,86.12,0,0,0,122,213.77V240a6,6,0,0,0,12,0V213.77A86.12,86.12,0,0,0,213.77,134H240a6,6,0,0,0,0-12ZM128,202a74,74,0,1,1,74-74A74.09,74.09,0,0,1,128,202Zm0-112a38,38,0,1,0,38,38A38,38,0,0,0,128,90Zm0,64a26,26,0,1,1,26-26A26,26,0,0,1,128,154Z"/></svg>
